tools/download-figma-icons/icons/outlined-large/couple.svg

<svg width="64" height="64" viewBox="0 0 64 64" fill="none" xmlns="http://www.w3.org/2000/svg">
<path d="M54.8748 43.0119C54.5228 42.1122 51.7067 35.464 45.1894 33.1347C47.6837 31.3352 49.3633 28.0561 49.3633 24.2971C49.3633 18.6187 45.5414 14 40.8446 14C36.1477 14 32.708 18.1888 32.366 23.4874C32.0241 18.1888 28.3531 14 23.8875 14C19.1907 14 15.3688 18.6187 15.3688 24.2971C15.3688 27.9361 16.9378 31.1352 19.3013 32.9647C12.4421 35.0941 9.48513 42.0522 9.12306 42.972C8.52967 44.1516 7.36299 46.9109 8.43915 48.6604C8.73082 49.1402 9.45496 49.95 10.9737 49.96L22.0369 50C22.8717 50 23.5456 49.3302 23.5456 48.5004C23.5456 47.6706 22.8717 47.0008 22.0369 47.0008L10.9938 46.9608C10.9837 46.461 11.2955 45.3313 11.8386 44.2616L11.909 44.1016C12.0398 43.7417 15.3286 35.3241 23.4249 35.3241H23.4551C24.8028 35.3241 26.1907 35.644 27.6993 36.3038C28.4637 36.6337 29.3488 36.2838 29.6907 35.534C30.0226 34.7742 29.6706 33.8945 28.9163 33.5546C28.6347 33.4346 28.3631 33.3446 28.0916 33.2347C30.4752 31.5851 32.1448 28.5859 32.366 25.1069C32.5773 28.416 34.0859 31.2852 36.2784 32.9747C29.3991 35.1241 26.4422 42.0822 26.0801 43.0119C25.4867 44.1916 24.3301 46.9508 25.4062 48.7004C25.708 49.1802 26.4321 49.99 27.9608 49.99H53.0041C54.5329 49.99 55.257 49.1802 55.5587 48.7004C56.6349 46.9508 55.4783 44.1916 54.8849 43.0119H54.8748ZM23.8775 31.5951C20.8502 31.5951 18.376 28.326 18.376 24.2971C18.376 20.2683 20.8401 16.9992 23.8775 16.9992C26.9149 16.9992 29.379 20.2683 29.379 24.2971C29.379 28.326 26.9149 31.5951 23.8775 31.5951ZM35.3431 24.2971C35.3431 20.2683 37.8072 16.9992 40.8446 16.9992C43.8819 16.9992 46.346 20.2683 46.346 24.2971C46.346 28.326 43.8819 31.5951 40.8446 31.5951C37.8072 31.5951 35.3431 28.326 35.3431 24.2971ZM27.9608 46.9908C27.9407 46.491 28.2525 45.3613 28.7956 44.2916L28.866 44.1316C29.0068 43.7717 32.2856 35.3141 40.4724 35.3141C48.6593 35.3141 51.938 43.7617 52.0788 44.1316L52.1492 44.2916C52.6923 45.3513 53.0041 46.481 52.984 46.9908H27.9608Z" fill="black"/>
</svg>

<svg width="64" height="64" viewBox="0 0 64 64" fill="none" xmlns="http://www.w3.org/2000/svg"><path d="M54.875 43.012c-.352-.9-3.168-7.548-9.686-9.877 2.495-1.8 4.174-5.079 4.174-8.838C49.363 18.62 45.541 14 40.845 14c-4.697 0-8.137 4.189-8.479 9.487C32.024 18.19 28.353 14 23.887 14c-4.696 0-8.518 4.619-8.518 10.297 0 3.64 1.569 6.838 3.932 8.668-6.859 2.13-9.816 9.087-10.178 10.007-.593 1.18-1.76 3.939-.684 5.688.292.48 1.016 1.29 2.535 1.3l11.063.04c.835 0 1.509-.67 1.509-1.5s-.674-1.5-1.51-1.5l-11.042-.04c-.01-.499.302-1.629.845-2.698l.07-.16c.13-.36 3.42-8.778 11.516-8.778h.03c1.348 0 2.736.32 4.244.98.765.33 1.65-.02 1.992-.77.332-.76-.02-1.64-.775-1.98-.281-.12-.553-.21-.824-.32 2.383-1.649 4.053-4.648 4.274-8.127.211 3.309 1.72 6.178 3.912 7.868-6.879 2.15-9.836 9.107-10.198 10.037-.593 1.18-1.75 3.939-.674 5.688.302.48 1.026 1.29 2.555 1.29h25.043c1.529 0 2.253-.81 2.555-1.29 1.076-1.75-.08-4.508-.674-5.688h-.01ZM23.878 31.595c-3.028 0-5.502-3.269-5.502-7.298S20.84 17 23.878 17c3.037 0 5.501 3.27 5.501 7.298 0 4.029-2.464 7.298-5.502 7.298Zm11.465-7.298c0-4.029 2.464-7.298 5.502-7.298 3.037 0 5.501 3.27 5.501 7.298 0 4.029-2.464 7.298-5.501 7.298-3.038 0-5.502-3.269-5.502-7.298Zm-7.382 22.694c-.02-.5.292-1.63.835-2.7l.07-.16c.14-.36 3.42-8.817 11.606-8.817 8.187 0 11.466 8.448 11.607 8.818l.07.16c.543 1.06.855 2.189.835 2.699H27.961Z" fill="currentColor"/></svg>
